X:1
T: the Highlander's Kneebuckle
S:Paddy O'Sullivan (fiddle), north Kerry
Z:Deirdre Sullivan & Paul de Grae 
M:4/4
L:1/8
R:reel
K:D
dB | AF ~F2 BF ~F2 | FADF E2 dB | AF ~F2 BFAF | DFEF D2 FG |
A3 B AF ~F2 | DFDF E2 dB | AF ~F2 BFAF | DFEF D2 dB ||
Ad ~d2 fd~dB | ABdf e2 dB | Ad ~d2 fddB | AFEF D2 AB |
~d3 f edBc | ~d3 f e2 de | fedB ~BABd | AFEF D2 |]
